X: 33198
T: Promotion, The
R: jig
M: 6/8
K: Fmajor
|:~F2F d2c-|cBA GFE|~F2F d2c|Ace fcA|~F2F d2c-|
cBA GFE|1 FED CDE|FGA BAG:|2 cff gfe|f3-fgf||
|:ecc gcc|b2a g2f|eee bge|f3-fgf|
ecc gcc|b2a g2f|eba gfe|1 f3-fgf:|2 fcA F3||

